public/images/hashed/06b3b18910d6eec748cf3bf58df456b6.svg

<?xml version="1.0" encoding="UTF-8"?>
<svg width="80px" height="80px" viewBox="0 0 80 80" version="1.1" xmlns="http://www.w3.org/2000/svg" xmlns:xlink="http://www.w3.org/1999/xlink">
    <!-- Generator: Sketch 64 (93537) - https://sketch.com -->
    <title>Icon-Architecture/64/Arch_Amazon-Route-53_64</title>
    <desc>Created with Sketch.</desc>
    <defs>
        <linearGradient x1="0%" y1="100%" x2="100%" y2="0%" id="linearGradient-1">
            <stop stop-color="#4D27A8" offset="0%"></stop>
            <stop stop-color="#A166FF" offset="100%"></stop>
        </linearGradient>
    </defs>
    <g id="Icon-Architecture/64/Arch_Amazon-Route-53_64" stroke="none" stroke-width="1" fill="none" fill-rule="evenodd">
        <g id="Icon-Architecture-BG/64/Networking-Content-Delivery" fill="url(#linearGradient-1)">
            <rect id="Rectangle" x="0" y="0" width="80" height="80"></rect>
        </g>
        <path d="M48.692,40.6795109 C49.431,41.3627732 49.801,42.2781246 49.801,43.4275659 C49.801,44.678046 49.351,45.6764293 48.452,46.4227159 C47.552,47.1700028 46.343,47.543146 44.826,47.543146 C43.627,47.543146 42.44,47.2870477 41.266,46.7768518 L41.266,45.2452638 C42.657,45.7054405 43.843,45.9345284 44.826,45.9345284 C45.796,45.9345284 46.542,45.7174451 47.065,45.2842788 C47.588,44.8501121 47.849,44.2308744 47.849,43.4275659 C47.849,41.8829729 46.874,41.1106764 44.921,41.1106764 C44.309,41.1106764 43.703,41.1426887 43.103,41.2057129 L43.103,39.9432282 L47.123,35.5585448 L41.458,35.5585448 L41.458,33.9889422 L49.247,33.9889422 L49.247,35.5015229 L45.304,39.6751253 C45.369,39.6621203 45.431,39.656118 45.496,39.656118 L45.687,39.656118 C46.951,39.656118 47.952,39.9972489 48.692,40.6795109 M37.574,40.3453826 C38.351,41.0726618 38.74,42.0740463 38.74,43.349536 C38.74,44.6010165 38.288,45.6124048 37.381,46.3847013 C36.475,47.1569978 35.283,47.543146 33.803,47.543146 C32.503,47.543146 31.284,47.2870477 30.148,46.7768518 L30.148,45.2452638 C31.564,45.7054405 32.776,45.9345284 33.784,45.9345284 C34.754,45.9345284 35.497,45.7154443 36.013,45.2742749 C36.53,44.834106 36.789,44.1998624 36.789,43.3695437 C36.789,42.4631957 36.546,41.8059434 36.061,41.3977867 C35.576,40.9896299 34.785,40.7845512 33.688,40.7845512 C32.897,40.7845512 31.909,40.8495762 30.722,40.976625 L30.722,39.7131399 L31.086,33.9889422 L38.071,33.9889422 L38.071,35.5585448 L32.693,35.5585448 L32.444,39.4450369 C33.146,39.3179882 33.777,39.2539636 34.338,39.2539636 C35.716,39.2539636 36.795,39.617103 37.574,40.3453826 M51.957,54.37777 C47.103,55.250105 42.852,57.2268639 40,58.8374822 C37.147,57.2268639 32.896,55.250105 28.043,54.37777 C26.677,54.1326759 19.869,52.7111302 19.869,48.7756192 C19.869,46.951919 20.522,45.7424547 21.776,43.5826255 C23.274,40.9996338 25.138,37.7843994 25.138,33.1556222 C25.138,29.8473521 24.271,26.6751342 22.559,23.7149977 C22.76,23.4669025 22.965,23.2158061 23.171,22.9627089 C25.707,24.2301955 28.347,24.8724421 31.031,24.8724421 C34.311,24.8724421 37.325,24.0111114 40,22.3114589 C42.674,24.0111114 45.688,24.8724421 48.968,24.8724421 C51.652,24.8724421 54.293,24.2301955 56.829,22.9627089 C57.034,23.2158061 57.239,23.4669025 57.44,23.7149977 C55.728,26.6751342 54.861,29.8473521 54.861,33.1556222 C54.861,37.7843994 56.725,40.9996338 58.226,43.586627 C59.477,45.7424547 60.13,46.951919 60.13,48.7756192 C60.13,52.7111302 53.322,54.1326759 51.957,54.37777 M56.861,33.1556222 C56.861,29.9974097 57.752,26.9702475 59.507,24.1581679 C59.735,23.7950284 59.706,23.3278491 59.434,22.9957216 C58.926,22.3734827 58.393,21.7182311 57.867,21.0669811 C57.562,20.6898363 57.032,20.5857963 56.606,20.8198862 C54.143,22.1814089 51.574,22.8716739 48.968,22.8716739 C45.824,22.8716739 43.077,22.0263494 40.569,20.2886823 C40.227,20.0515912 39.772,20.0515912 39.43,20.2886823 C36.922,22.0263494 34.175,22.8716739 31.031,22.8716739 C28.425,22.8716739 25.856,22.1814089 23.393,20.8198862 C22.968,20.5857963 22.437,20.6898363 22.132,21.0669811 C21.606,21.7182311 21.073,22.3734827 20.565,22.9957216 C20.294,23.3278491 20.264,23.7950284 20.492,24.1581679 C22.248,26.9702475 23.138,29.9974097 23.138,33.1556222 C23.138,37.2461927 21.423,40.2023277 20.045,42.581241 C18.695,44.9041328 17.869,46.4467251 17.869,48.7756192 C17.869,54.1646882 25.385,55.9343677 27.689,56.3475263 C32.549,57.2208616 36.793,59.2806524 39.497,60.8542565 C39.652,60.9452915 39.826,60.9903088 40,60.9903088 C40.173,60.9903088 40.347,60.9452915 40.503,60.8542565 C43.207,59.2806524 47.45,57.2208616 52.31,56.3475263 C54.614,55.9343677 62.13,54.1646882 62.13,48.7756192 C62.13,46.4467251 61.304,44.9041328 59.954,42.5782399 C58.576,40.2023277 56.861,37.2461927 56.861,33.1556222 M52.994,60.1569888 C46.863,61.2594121 41.723,64.556678 40,65.7641416 C38.276,64.556678 33.136,61.2594121 27.005,60.1569888 C14.937,57.9891566 14,50.8974338 14,48.7756192 C14,45.2852792 15.371,42.9233724 16.697,40.6374948 C17.961,38.4596586 19.268,36.2067937 19.268,33.1556222 C19.268,28.3357718 16.485,24.9314648 15.112,23.5459328 C16.556,21.7892584 20.204,17.3415508 22.003,15.0236609 C24.729,17.5966487 27.898,19.0001876 31.031,19.0001876 C34.509,19.0001876 37.385,17.5846441 40,14.5644846 C42.614,17.5846441 45.49,19.0001876 48.968,19.0001876 C52.101,19.0001876 55.27,17.5966487 57.997,15.0236609 C59.796,17.3415508 63.443,21.7892584 64.887,23.5459328 C63.514,24.9314648 60.731,28.3357718 60.731,33.1556222 C60.731,36.2067937 62.039,38.4596586 63.302,40.6374948 C64.629,42.9233724 66,45.2852792 66,48.7756192 C66,50.8974338 65.062,57.9891566 52.994,60.1569888 M65.032,39.6341095 C63.797,37.5052922 62.731,35.6675867 62.731,33.1556222 C62.731,27.867592 66.847,24.4472789 66.887,24.4152666 C67.094,24.2472021 67.226,24.0031083 67.254,23.7370062 C67.28,23.470904 67.2,23.2058022 67.03,22.9997231 C66.963,22.9196924 60.408,14.9726413 58.906,12.9138509 C58.73,12.6727583 58.457,12.5227007 58.159,12.5046938 C57.86,12.4826853 57.572,12.601731 57.368,12.8198148 C54.848,15.5148495 51.866,16.9994194 48.968,16.9994194 C45.764,16.9994194 43.244,15.5718713 40.794,12.3706423 C40.415,11.8764526 39.585,11.8764526 39.206,12.3706423 C36.755,15.5718713 34.235,16.9994194 31.031,16.9994194 C28.133,16.9994194 25.151,15.5148495 22.631,12.8198148 C22.427,12.601731 22.137,12.4776834 21.84,12.5046938 C21.543,12.5227007 21.269,12.6727583 21.093,12.9138509 C19.591,14.9726413 13.036,22.9196924 12.969,22.9997231 C12.8,23.2058022 12.72,23.470904 12.747,23.7360058 C12.773,24.0011076 12.904,24.2452013 13.11,24.4132658 C13.152,24.4472789 17.268,27.867592 17.268,33.1556222 C17.268,35.6675867 16.202,37.5052922 14.967,39.6341095 C13.576,42.0310298 12,44.7470725 12,48.7756192 C12,55.487196 17.477,60.4781121 26.652,62.1267451 C33.559,63.3682217 39.334,67.7489036 39.391,67.7939209 C39.57,67.9309735 39.785,68 40,68 C40.214,68 40.429,67.9309735 40.609,67.7929205 C40.667,67.7489036 46.422,63.3712229 53.347,62.1267451 C62.522,60.4781121 68,55.487196 68,48.7756192 C68,44.7470725 66.423,42.0310298 65.032,39.6341095" id="Amazon-Route-53-Icon_64_Squid" fill="#FFFFFF"></path>
    </g>
</svg>

<svg xmlns="http://www.w3.org/2000/svg" width="80" height="80"><defs><linearGradient id="a" x1="0%" x2="100%" y1="100%" y2="0%"><stop offset="0%" stop-color="#4D27A8"/><stop offset="100%" stop-color="#A166FF"/></linearGradient></defs><g fill="none" fill-rule="evenodd"><path fill="url(#a)" d="M0 0h80v80H0z"/><path fill="#FFF" d="M48.692 40.68c.739.683 1.109 1.598 1.109 2.748 0 1.25-.45 2.248-1.349 2.995-.9.747-2.109 1.12-3.626 1.12-1.199 0-2.386-.256-3.56-.766v-1.532c1.391.46 2.577.69 3.56.69.97 0 1.716-.218 2.239-.65.523-.435.784-1.054.784-1.857 0-1.545-.975-2.317-2.928-2.317-.612 0-1.218.032-1.818.095v-1.263l4.02-4.384h-5.665v-1.57h7.789v1.513l-3.943 4.173a.961.961 0 0 1 .192-.019h.191c1.264 0 2.265.341 3.005 1.024m-11.118-.335c.777.728 1.166 1.729 1.166 3.005 0 1.251-.452 2.262-1.359 3.035-.906.772-2.098 1.158-3.578 1.158a8.82 8.82 0 0 1-3.655-.766v-1.532c1.416.46 2.628.69 3.636.69.97 0 1.713-.22 2.229-.66.517-.44.776-1.075.776-1.905 0-.907-.243-1.564-.728-1.972-.485-.408-1.276-.613-2.373-.613-.791 0-1.779.065-2.966.192v-1.264l.364-5.724h6.985v1.57h-5.378l-.249 3.886a10.743 10.743 0 0 1 1.894-.191c1.378 0 2.457.363 3.236 1.091m14.383 14.033c-4.854.872-9.105 2.849-11.957 4.46-2.853-1.611-7.104-3.588-11.957-4.46-1.366-.245-8.174-1.667-8.174-5.602 0-1.824.653-3.034 1.907-5.193 1.498-2.583 3.362-5.799 3.362-10.427 0-3.309-.867-6.48-2.579-9.441l.612-.752c2.536 1.267 5.176 1.91 7.86 1.91 3.28 0 6.294-.862 8.969-2.562 2.674 1.7 5.688 2.561 8.968 2.561 2.684 0 5.325-.642 7.861-1.91l.611.753c-1.712 2.96-2.579 6.132-2.579 9.44 0 4.63 1.864 7.845 3.365 10.432 1.251 2.155 1.904 3.365 1.904 5.189 0 3.935-6.808 5.357-8.173 5.602m4.904-21.222c0-3.159.891-6.186 2.646-8.998a.997.997 0 0 0-.073-1.162 476.12 476.12 0 0 1-1.567-1.929 1 1 0 0 0-1.261-.247c-2.463 1.361-5.032 2.052-7.638 2.052-3.144 0-5.891-.846-8.399-2.583a1 1 0 0 0-1.139 0c-2.508 1.737-5.255 2.583-8.399 2.583-2.606 0-5.175-.69-7.638-2.052a1 1 0 0 0-1.261.247 476.12 476.12 0 0 1-1.567 1.929.998.998 0 0 0-.073 1.162c1.756 2.812 2.646 5.84 2.646 8.998 0 4.09-1.715 7.046-3.093 9.425-1.35 2.323-2.176 3.866-2.176 6.195 0 5.389 7.516 7.158 9.82 7.572 4.86.873 9.104 2.933 11.808 4.506a.992.992 0 0 0 1.006 0c2.704-1.573 6.947-3.633 11.807-4.506 2.304-.414 9.82-2.183 9.82-7.572 0-2.33-.826-3.872-2.176-6.198-1.378-2.376-3.093-5.332-3.093-9.422m-3.867 27.001c-6.131 1.102-11.271 4.4-12.994 5.607-1.724-1.207-6.864-4.505-12.995-5.607C14.937 57.989 14 50.897 14 48.776c0-3.49 1.371-5.853 2.697-8.139 1.264-2.177 2.571-4.43 2.571-7.481 0-4.82-2.783-8.225-4.156-9.61 1.444-1.757 5.092-6.204 6.891-8.522C24.729 17.597 27.898 19 31.031 19c3.478 0 6.354-1.415 8.969-4.436C42.614 17.584 45.49 19 48.968 19c3.133 0 6.302-1.403 9.029-3.976 1.799 2.318 5.446 6.765 6.89 8.522-1.373 1.385-4.156 4.79-4.156 9.61 0 3.05 1.308 5.304 2.571 7.481C64.629 42.923 66 45.285 66 48.776c0 2.121-.938 9.213-13.006 11.381m12.038-20.523c-1.235-2.129-2.301-3.966-2.301-6.478 0-5.288 4.116-8.709 4.156-8.74A1.004 1.004 0 0 0 67.03 23c-.067-.08-6.622-8.027-8.124-10.086a.999.999 0 0 0-1.538-.094c-2.52 2.695-5.502 4.18-8.4 4.18-3.204 0-5.724-1.428-8.174-4.63-.379-.494-1.209-.494-1.588 0-2.451 3.202-4.971 4.63-8.175 4.63-2.898 0-5.88-1.485-8.4-4.18a.971.971 0 0 0-.791-.315 1 1 0 0 0-.747.409C19.591 14.973 13.036 22.92 12.969 23a1.001 1.001 0 0 0 .141 1.413c.042.034 4.158 3.455 4.158 8.743 0 2.512-1.066 4.35-2.301 6.478C13.576 42.031 12 44.747 12 48.776c0 6.711 5.477 11.702 14.652 13.35 6.907 1.242 12.682 5.623 12.739 5.668a1.001 1.001 0 0 0 1.218-.001c.058-.044 5.813-4.422 12.738-5.666C62.522 60.478 68 55.487 68 48.776c0-4.029-1.577-6.745-2.968-9.142"/></g></svg>
